!!!COM: Webern, Anton : von
!!!OPS: Opus 21
!!!OMV: Mov. 2 (Variationen)
!!!OTL: Symphonie
!!!XEN: Symphony
!!!YEC: Copyright 1995, David Huron & Brian Alegant
!!!YEM: This data is the property of David Huron and Brian Alegant, and is
!!!YEM: available by license only.  Refer to accompanying license agreement.
!!!YEM: This data may not be copied or translated to another format except in
!!!YEM: accordance with the license agreement.
!!!RDF1: U=mute
!! II. Variationen
!! "Sehr ruhig"
**kern	**kern	**kern	**kern	**kern	**kern	**kern	**kern	**kern	**kern
*ICstr	*ICstr	*ICstr	*ICstr	*ICstr	*ICstr	*ICbras	*ICww	*ICww	*ICww
*Icello	*Iviola	*Ivioln	*Ivioln	*Iarpa	*Iarpa	*Icor	*Icor	*Iclarb	*Iclars
!	!	!violn2	!violn1	!	!	!	!	!	!
*clefF4	*clefC3	*clefG2	*clefG2	*clefF4	*clefG2	*clefG2	*clefG2	*clefF4	*clefG2
*M2/4	*M2/4	*M2/4	*M2/4	*M2/4	*M2/4	*M2/4	*M2/4	*M2/4	*M2/4
*MM108	*MM108	*MM108	*MM108	*MM108	*MM108	*MM108	*MM108	*MM108	*MM108
*k[]	*k[]	*k[]	*k[]	*k[]	*k[]	*k[]	*k[]	*k[]	*k[]
*X:	*X:	*X:	*X:	*X:	*X:	*X:	*X:	*X:	*X:
*>[Thema,V1,V2,V3,V4,V5,V6,V7,Coda]	*>[Theme,V1,V2,V3,V4,V5,V6,V7,Coda]	*>[Theme,V1,V2,V3,V4,V5,V6,V7,Coda]	*>[Theme,V1,V2,V3,V4,V5,V6,V7,Coda]	*>[Theme,V1,V2,V3,V4,V5,V6,V7,Coda]	*>[Theme,V1,V2,V3,V4,V5,V6,V7,Coda]	*>[Theme,V1,V2,V3,V4,V5,V6,V7,Coda]	*>[Theme,V1,V2,V3,V4,V5,V6,V7,Coda]	*>[Theme,V1,V2,V3,V4,V5,V6,V7,Coda]	*>[Theme,V1,V2,V3,V4,V5,V6,V7,Coda]
*>Thema	*>Thema	*>Thema	*>Thema	*>Thema	*>Thema	*>Thema	*>Thema	*>Thema	*>Thema
=1-	=1-	=1-	=1-	=1-	=1-	=1-	=1-	=1-	=1-
2r	2r	2r	2r	4r	2r	2r	2r	2r	(4fn'
.	.	.	.	4bno'	.	.	.	.	4f')
=2	=2	=2	=2	=2	=2	=2	=2	=2	=2
2r	2r	2r	2r	4bno'	2r	(4dn'U	(4cc#'U	2r	4r
.	.	.	.	4r	.	4d'U)	4cc#'U)	.	4a-~
=3	=3	=3	=3	=3	=3	=3	=3	=3	=3
2r	2r	2r	2r	2r	4ccno'	2r	2r	2r	(4a-
.	.	.	.	.	4cco'	.	.	.	4Gn)
=4	=4	=4	=4	=4	=4	=4	=4	=4	=4
2r	2r	2r	2r	2r	2r	2r	2r	2r	(4Gn
.	.	.	.	.	.	.	.	.	4f#)
=5	=5	=5	=5	=5	=5	=5	=5	=5	=5
2r	2r	2r	2r	2r	2r	2r	2r	2r	8r
.	.	.	.	.	.	.	.	.	4.B-
=6	=6	=6	=6	=6	=6	=6	=6	=6	=6
2r	2r	2r	2r	2r	8en	2r	2r	2r	8r
.	.	.	.	.	8ee-	.	.	.	(8an
.	.	.	.	.	8an	.	.	.	8ee-)
.	.	.	.	.	8B-	.	.	.	8r
=7	=7	=7	=7	=7	=7	=7	=7	=7	=7
2r	2r	2r	2r	2r	2r	2r	2r	2r	4.en
.	.	.	.	.	.	.	.	.	8r
=8	=8	=8	=8	=8	=8	=8	=8	=8	=8
2r	2r	2r	2r	2r	2r	2r	2r	2r	(4ccn
.	.	.	.	.	.	.	.	.	4c#)
=9	=9	=9	=9	=9	=9	=9	=9	=9	=9
2r	2r	2r	2r	2r	4ff#o'	2r	2r	2r	(4c#
.	.	.	.	.	4ff#o'	.	.	.	4ddn)
=10	=10	=10	=10	=10	=10	=10	=10	=10	=10
2r	2r	2r	2r	4r	2r	(4G#'U	(4gn'U	2r	4ddn~
.	.	.	.	4fno'	.	4G#'U)	4g'U)	.	4r
=11	=11	=11	=11	=11	=11	=11	=11	=11	=11
2r	2r	2r	4r	4fo'	2r	2r	2r	2r	(4bn'
.	.	.	(8cccnU	4r	.	.	.	.	4b')
.	.	.	8ee-'U)	.	.	.	.	.	.
*>V1	*>V1	*>V1	*>V1	*>V1	*>V1	*>V1	*>V1	*>V1	*>V1
!! Variation I.
!! lebhafter
*MM132	*MM132	*MM132	*MM132	*MM132	*MM132	*MM132	*MM132	*MM132	*MM132
=12	=12	=12	=12	=12	=12	=12	=12	=12	=12
(8BB-U	2r	4r	4dn~"U	2r	2r	2r	2r	2r	2r
8Gn'U)	.	.	.	.	.	.	.	.	.
4g#~"U	.	8ff#"U	8r	.	.	.	.	.	.
.	.	8An"U	(8cc#U	.	.	.	.	.	.
=13	=13	=13	=13	=13	=13	=13	=13	=13	=13
8r	8En"U	8r	8fn'U)	2r	2r	2r	2r	2r	2r
(8AnU	8cc#"U	8g#"U	8r	.	.	.	.	.	.
8fn)	8r	8r	4eenU"	.	.	.	.	.	.
8r	8dn"U	8ggn'U	.	.	.	.	.	.	.
=14	=14	=14	=14	=14	=14	=14	=14	=14	=14
4F#"U	8r	(8ggU	4b-"U	2r	2r	2r	2r	2r	2r
.	8E-"U	8Bn'U)	.	.	.	.	.	.	.
4cn"U	(8E-U	8r	4r	.	.	.	.	.	.
.	8bn'U)	8b-"U	.	.	.	.	.	.	.
=15	=15	=15	=15	=15	=15	=15	=15	=15	=15
4r	8r	8r	8bn'U	2r	2r	2r	2r	2r	2r
.	8cn"U	(4eenU	8b'U	.	.	.	.	.	.
8Bn'U	8r	.	(4ggnU	.	.	.	.	.	.
.	.	qfnU	.	.	.	.	.	.	.
8B'U	([8F#U	8cc#U)	.	.	.	.	.	.	.
=16	=16	=16	=16	=16	=16	=16	=16	=16	=16
4E-'U	8F#U]	8r	4ggg#U)	2r	2r	2r	2r	2r	2r
.	qfnU	.	.	.	.	.	.	.	.
.	8AnU)	(8ddnU	.	.	.	.	.	.	.
4DDn"U	8r	8ee-U)	8r	.	.	.	.	.	.
.	(8A-U	8ee-"U	(8aanU	.	.	.	.	.	.
=17	=17	=17	=17	=17	=17	=17	=17	=17	=17
8r	8GnU)	8r	8f#U)	2r	2r	2r	2r	2r	2r
(8C#U	8G"U	(8ccn'U	8r	.	.	.	.	.	.
8enU)	8r	8cc'U)	8r	.	.	.	.	.	.
8r	(8B-U	8r	(8f#U	.	.	.	.	.	.
=18	=18	=18	=18	=18	=18	=18	=18	=18	=18
8r	8B-'U)	8ee-"U	8aanU)	2r	2r	2r	2r	2r	2r
(8enU	8r	(8ee-U	8r	.	.	.	.	.	.
8C#U)	8Gn"U	8ddnU)	(4ggg#U	.	.	.	.	.	.
8r	(8GU	8r	.	.	.	.	.	.	.
=19	=19	=19	=19	=19	=19	=19	=19	=19	=19
.	.	qcc#U	.	2r	2r	2r	2r	2r	2r
4DDn"U	8A-U)	(8fnU	4ggnU)	.	.	.	.	.	.
.	8r	4eenU)	.	.	.	.	.	.	.
.	qAnU	.	.	.	.	.	.	.	.
4E-'U	(8fnU	.	8bn'U	.	.	.	.	.	.
.	[8F#U	8r	8b'U	.	.	.	.	.	.
=20	=20	=20	=20	=20	=20	=20	=20	=20	=20
8Bn'U	8F#U])	8b-"U	4r	2r	2r	2r	2r	2r	2r
8B'U	8r	8r	.	.	.	.	.	.	.
4r	8cn"U	(8BnU	4b-"U	.	.	.	.	.	.
.	8r	8ggnU)	.	.	.	.	.	.	.
=21	=21	=21	=21	=21	=21	=21	=21	=21	=21
4cn"U	(8bnU	8gg'U	4een"U	2r	2r	2r	2r	2r	2r
.	8E-U)	8r	.	.	.	.	.	.	.
4F#"U	8E-'U	8g#"U	8r	.	.	.	.	.	.
.	8r	8r	(8fnU	.	.	.	.	.	.
=22	=22	=22	=22	=22	=22	=22	=22	=22	=22
8r	8dn"U	8An"U	8cc#U)	2r	2r	2r	2r	2r	2r
(8fnU	8r	8ff#"U	8r	.	.	.	.	.	.
8AnU)	8cc#"U	4r	4Dn~"U	.	.	.	.	.	.
8r	8En"U	.	.	.	.	.	.	.	.
*>V2	*>V2	*>V2	*>V2	*>V2	*>V2	*>V2	*>V2	*>V2	*>V2
!! Variation II.
!! sehr lebhalft
*MM172	*MM172	*MM172	*MM172	*MM172	*MM172	*MM172	*MM172	*MM172	*MM172
=23	=23	=23	=23	=23	=23	=23	=23	=23	=23
4a-~"U	2r	2r	(8ee-U	2r	2r	2r	8fn'	2r	4r
.	.	.	8cccnU)	.	.	.	8en'	.	.
(8GnU	.	.	4r	.	.	.	8f'	.	8r
8BB-U)	.	.	.	.	.	.	8e'	.	8ee-'
=24	=24	=24	=24	=24	=24	=24	=24	=24	=24
2r	2r	2r	2r	4r	4r	2r	8dn'	8r	8cccn'
.	.	.	.	.	.	.	8gn'	8An'	8r
.	.	.	.	8g#z'	8cc#z'	.	8d'	8r	4r
.	.	.	.	8r	8r	.	8g'	8dn'	.
=25	=25	=25	=25	=25	=25	=25	=25	=25	=25
2r	4r	4r	2r	2r	2r	2r	8e-'	4r	8r
.	.	.	.	.	.	.	8g-'	.	8cccn'
.	8r	8bn"U	.	.	.	.	8e-'	8BB-'	8ffn'
.	8Bn"U	8f#"U	.	.	.	.	8g-'	8Fn'	8r
=26	=26	=26	=26	=26	=26	=26	=26	=26	=26
2r	8en"U	2r	2r	2r	2r	2r	8en'	2r	2r
.	8r	.	.	.	.	.	8fn'	.	.
.	4r	.	.	.	.	.	8e'	.	.
.	.	.	.	.	.	.	8f'	.	.
=27	=27	=27	=27	=27	=27	=27	=27	=27	=27
2r	2r	2r	2r	8r	8r	2r	8cn'	8Dnz'	4r
.	.	.	.	8dd#z'	8gg#z'	.	8an'	8r	.
.	.	.	.	4r	4r	.	8c'	4r	8Gnz'
.	.	.	.	.	.	.	8a'	.	8r
=28	=28	=28	=28	=28	=28	=28	=28	=28	=28
2r	2r	2r	2r	4r	4r	2r	8cc#'	8r	4r
.	.	.	.	.	.	.	8g#'	8Enz'	.
.	.	.	.	8cc#'	8ff#'	.	8gn'	4r	8r
.	.	.	.	8r	8r	.	8dn'	.	8An'
=29	=29	=29	=29	=29	=29	=29	=29	=29	=29
2r	2r	2r	2r	8r	8r	2r	8g-'	4r	8A'
.	.	.	.	8cc#'	8ff#'	.	8e-'	.	8r
.	.	.	.	4r	4r	.	8g-'	8Enz'	4r
.	.	.	.	.	.	.	8e-'	8r	.
=30	=30	=30	=30	=30	=30	=30	=30	=30	=30
2r	2r	2r	2r	4r	4r	2r	8b-'	4r	8r
.	.	.	.	.	.	.	8Bn'	.	8Gnz'
.	.	.	.	8dd#z'	8gg#z'	.	8b-'	8r	4r
.	.	.	.	8r	8r	.	8Bn'	8Dnz'	.
=31	=31	=31	=31	=31	=31	=31	=31	=31	=31
2r	4r	2r	2r	2r	2r	2r	8a'	2r	2r
.	.	.	.	.	.	.	8cn'	.	.
.	8r	.	.	.	.	.	8a'	.	.
.	8en"U	.	.	.	.	.	8c'	.	.
=32	=32	=32	=32	=32	=32	=32	=32	=32	=32
2r	8Bn"U	8f#"U	2r	2r	2r	2r	8g#'	8ddn'	8r
.	8r	8bn"U	.	.	.	.	8c#'	8BB-'	8ffn'
.	4r	4r	.	.	.	.	8g#'	4r	8cccn'
.	.	.	.	.	.	.	8c#'	.	8r
!! rit. - - - - - - - -
=33	=33	=33	=33	=33	=33	=33	=33	=33	=33
2r	2r	2r	2r	8r	8r	2r	8Bn'	8dn'	4r
.	.	.	.	8g#z'	8cc#z'	.	8b-'	8r	.
.	.	.	.	4r	4r	.	8Bn'	8An'	8r
.	.	.	.	.	.	.	8b-'	8r	8cccn'
*>V3	*>V3	*>V3	*>V3	*>V3	*>V3	*>V3	*>V3	*>V3	*>V3
!! Variation III.
=34	=34	=34	=34	=34	=34	=34	=34	=34	=34
8r	8.r	4r	8aaa-z"U	2r	2r	2r	2r	8BB-'	8ee-'
8DDnz"U	.	.	8r	.	.	.	.	8Gn'	8r
.	(16FnU	.	.	.	.	.	.	.	.
4r	8f#U)	16r	4r	.	.	.	.	4r	4r
.	.	(16bnU	.	.	.	.	.	.	.
.	8r	8cnU)	.	.	.	.	.	.	.
!! wieder maessiger
*MM132	*MM132	*MM132	*MM132	*MM132	*MM132	*MM132	*MM132	*MM132	*MM132
=35;	=35;	=35;	=35;	=35;	=35;	=35;	=35;	=35;	=35;
2r	8.r	4r	2r	2r	2r	2r	2r	2r	16r
.	.	.	.	.	.	.	.	.	(16Gn
.	.	.	.	.	.	.	.	.	16e-
.	16cc#'U	.	.	.	.	.	.	.	16een)
.	16an'U	16B-'U	.	.	.	.	.	.	8r
.	16B-'U	16an'U	.	.	.	.	.	.	.
.	8r	16cc#'U	.	.	.	.	.	.	(16een
.	.	16r	.	.	.	.	.	.	16e-
=36	=36	=36	=36	=36	=36	=36	=36	=36	=36
4r	2r	2r	4r	4r	2r	8r	16r	2r	16Gn)
.	.	.	.	.	.	.	(16cn	.	16r
.	.	.	.	.	.	16f#'U	16ddn)	.	8r
.	.	.	.	.	.	16r	16r	.	.
8.r	.	.	16r	16dn'	.	16Fn'U	4r	.	8.r
.	.	.	16ccc#z"U	16r	.	16r	.	.	.
.	.	.	8r	16A-'	.	8r	.	.	.
16GGn"U	.	.	.	16r	.	.	.	.	(16cn
=37	=37	=37	=37	=37	=37	=37	=37	=37	=37
2r	8r	16r	2r	2r	2r	4r	2r	2r	16een
.	.	16f#'U	.	.	.	.	.	.	16e-)
.	16an'U	16B-'U	.	.	.	.	.	.	8r
.	16B-'U	16an'U	.	.	.	.	.	.	.
.	16f#'U	4r	.	.	.	8.r	.	.	(16e-
.	16r	.	.	.	.	.	.	.	16een
.	8r	.	.	.	.	.	.	.	16cn)
.	.	.	.	.	.	(16GnU	.	.	16r
=38	=38	=38	=38	=38	=38	=38	=38	=38	=38
4r	2r	2r	8r	2r	8r	16a-)U	(8cc#	2r	2r
.	.	.	.	.	.	16r	.	.	.
.	.	.	(16fff#	.	16fn'	8r	16dn)	.	.
.	.	.	16ggn)	.	16r	.	16r	.	.
(16Cn	.	.	4r	.	16bn'	4r	4r	.	.
16c#)	.	.	.	.	16r	.	.	.	.
8r	.	.	.	.	8r	.	.	.	.
=39;	=39;	=39;	=39;	=39;	=39;	=39;	=39;	=39;	=39;
!! rit. - - - - - - - -
2r	2r	2r	2r	8r	8r	2r	16r	2r	2r
.	.	.	.	(16B-	(16an	.	(8e-~U	.	.
.	.	.	.	8enxx	8en	.	16r	.	.
.	.	.	.	.	.	.	16r	.	.
.	.	.	.	16B-)	16a)	.	8e-~U)	.	.
.	.	.	.	8r	8r	.	.	.	.
.	.	.	.	.	.	.	16r	.	.
=40	=40	=40	=40	=40	=40	=40	=40	=40	=40
!! tempo
8r	2r	2r	4r	2r	8.r	4r	4r	2r	2r
(16c#U	.	.	.	.	.	.	.	.	.
16CnU)	.	.	.	.	16bn'	.	.	.	.
4r	.	.	(16ggnU	.	16r	8.r	16r	.	.
.	.	.	16fff#U)	.	16fn'	.	(16dn	.	.
.	.	.	8r	.	8r	.	8cc#)	.	.
.	.	.	.	.	.	(16a-	.	.	.
=41	=41	=41	=41	=41	=41	=41	=41	=41	=41
2r	8.r	4r	2r	2r	2r	16Gn)	2r	2r	16r
.	.	.	.	.	.	16r	.	.	(16cn
.	.	.	.	.	.	8r	.	.	16een
.	16f#'U	.	.	.	.	.	.	.	16e-)
.	16B-'U	16an'U	.	.	.	4r	.	.	8r
.	16an'U	16B-'U	.	.	.	.	.	.	.
.	8r	16f#'U	.	.	.	.	.	.	(16e-
.	.	16r	.	.	.	.	.	.	16een
=42	=42	=42	=42	=42	=42	=42	=42	=42	=42
16GGn"U	2r	2r	8r	16r	2r	8.r	4r	2r	16cn)
16r	.	.	.	16A-'	.	.	.	.	16r
8r	.	.	16ccc#z"U	16r	.	.	.	.	8r
.	.	.	16r	16dn'	.	16Fn'	.	.	.
4r	.	.	4r	4r	.	16r	16r	.	8.r
.	.	.	.	.	.	16f#'	(16bn	.	.
.	.	.	.	.	.	8r	16cn)	.	.
.	.	.	.	.	.	.	16r	.	(16Gn
=43	=43	=43	=43	=43	=43	=43	=43	=43	=43
2r	8r	16r	2r	2r	2r	2r	2r	2r	16e-
.	.	16cc#'U	.	.	.	.	.	.	16een)
.	16B-'U	16an'U	.	.	.	.	.	.	8r
.	16an'U	16B-'U	.	.	.	.	.	.	.
.	16cc#'U	4r	.	.	.	.	.	.	(16een
.	16r	.	.	.	.	.	.	.	16e-
.	8r	.	.	.	.	.	.	.	16Gn)
.	.	.	.	.	.	.	.	.	16r
=44;	=44;	=44;	=44;	=44;	=44;	=44;	=44;	=44;	=44;
!! molto rit. - -
8r	2r	2r	(8cU	4r	4r	2r	2r	2r	2r
(8f#U	.	.	16bnU)	.	.	.	.	.	.
.	.	.	16r	.	.	.	.	.	.
16FnU)	.	.	4r	8DDn	8r	.	.	.	.
16r	.	.	.	.	.	.	.	.	.
8r	.	.	.	8r	8aaa-	.	.	.	.
*>V4	*>V4	*>V4	*>V4	*>V4	*>V4	*>V4	*>V4	*>V4	*>V4
!! Variation IV.
!! aeusserst ruhig
*MM80	*MM80	*MM80	*MM80	*MM80	*MM80	*MM80	*MM80	*MM80	*MM80
=45;	=45;	=45;	=45;	=45;	=45;	=45;	=45;	=45;	=45;
2r	2r	2r	2r	2r	2r	6r	2r	2r	6r
.	.	.	.	.	.	6r	.	.	(6cc#
.	.	.	.	.	.	(6bnU	.	.	6een)
=46	=46	=46	=46	=46	=46	=46	=46	=46	=46
6r	2r	6r	2r	2r	2r	6dnU)	(6ccnU	6r	2r
(6e-U	.	6r	.	.	.	6r	6anU)	(6B-	.
6dnU)	.	(6cc#U	.	.	.	6r	6r	6gn)	.
=47	=47	=47	=47	=47	=47	=47	=47	=47	=47
2r	6r	6cnU)	6r	2r	2r	(6B-U	2r	2r	6r
.	(6f#U	6r	6r	.	.	6bnU)	.	.	(6gg#
.	6ffnU)	6r	(6en	.	.	6r	.	.	6an)
=48	=48	=48	=48	=48	=48	=48	=48	=48	=48
6r	2r	(6gnU	6ee-U)	2r	2r	2r	6r	2r	6r
6r	.	6gg#U)	6r	.	.	.	(6bnU	.	(6ffn
(6anU	.	6r	6r	.	.	.	6cnU)	.	6f#)
=49	=49	=49	=49	=49	=49	=49	=49	=49	=49
6b-)	(6dn	6r	6r	2r	2r	2r	2r	2r	2r
6r	6cc#U)	(6g#U	(6cccnU	.	.	.	.	.	.
6r	6r	6AnU)	6bnU)	.	.	.	.	.	.
=50;	=50;	=50;	=50;	=50;	=50;	=50;	=50;	=50;	=50;
!! molto rit. - - - - -
2r	2r	2r	2r	16r	8.r	16r	16r	16r	16r
.	.	.	.	8Dn	.	(16d#U	(16f#U	8Fn'	8bb-'
.	.	.	.	.	.	16enU)	16gnU)	.	.
.	.	.	.	8g#	8cc#	(16d#U	(16f#U	8F'	8bb-'
.	.	.	.	.	.	16eU)	16gU)	.	.
.	.	.	.	8Dn	8.r	(16d#U	(16f#U	8F'	8bb-'
.	.	.	.	.	.	16eU)	16gU)	.	.
.	.	.	.	16r	.	16r	16r	16r	16r
=51;	=51;	=51;	=51;	=51;	=51;	=51;	=51;	=51;	=51;
(6g#U	(6ff#U	6r	6r	2r	2r	2r	2r	2r	2r
6FnU)	6fnU)	6r	(6gg#U	.	.	.	.	.	.
6r	6r	(6e-U	6gnU)	.	.	.	.	.	.
=52	=52	=52	=52	=52	=52	=52	=52	=52	=52
6r	6r	6eenU)	2r	2r	2r	2r	(6bnU	2r	(6fn
6r	(6cc#U	6r	.	.	.	.	6cnU)	.	6ff#)
(6b-U	6dnU)	6r	.	.	.	.	6r	.	6r
=53	=53	=53	=53	=53	=53	=53	=53	=53	=53
6anU)	2r	6r	(6cccnU	2r	2r	6r	2r	2r	(6gg#
6r	.	6r	6bnU)	.	.	(6B-U	.	.	6an)
6r	.	(6c#U	6r	.	.	6bnU)	.	.	6r
=54	=54	=54	=54	=54	=54	=54	=54	=54	=54
!! rit. - - - - -
(6e-U	2r	6ccnU)	2r	2r	2r	6r	6r	(6B-	2r
6dU)	.	6r	.	.	.	6r	(6ccnU	6gn)	.
6r	.	6r	.	.	.	(6bnU	6anU)	6r	.
=55	=55	=55	=55	=55	=55	=55	=55	=55	=55
4r	4r	2r	2r	2r	2r	6dnU)	2r	2r	(6cc#
.	.	.	.	.	.	6r	.	.	6een)
16r	16r	.	.	.	.	.	.	.	.
16FFn'^ 16GGn'^	16F#'^ 16G#'^	.	.	.	.	.	.	.	.
.	.	.	.	.	.	6r	.	.	6r
16FF'^ 16GG'^	16F#'^ 16G#'^	.	.	.	.	.	.	.	.
16FF'^ 16GG'^	16F#'^ 16G#'^	.	.	.	.	.	.	.	.
*>V5	*>V5	*>V5	*>V5	*>V5	*>V5	*>V5	*>V5	*>V5	*>V5
!! Variation V.
!! sehr lebhaft
*MM172	*MM172	*MM172	*MM172	*MM172	*MM172	*MM172	*MM172	*MM172	*MM172
=56	=56	=56	=56	=56	=56	=56	=56	=56	=56
16r	16r	16r	16r	2r	12r	2r	2r	2r	2r
16FFn'^ 16GGn'^	16F#'^ 16G#'^	16bn'^ 16cc#'^	16cccn'^ 16dddn'^	.	.	.	.	.	.
.	.	.	.	.	12e-	.	.	.	.
16FF' 16GG'	16F#' 16G#'	16b' 16cc#'	16ccc' 16ddd'	.	.	.	.	.	.
.	.	.	.	.	12een	.	.	.	.
16r	16r	16b' 16cc#'	16ccc' 16ddd'	.	.	.	.	.	.
4r	4r	16r	16r	.	12B-	.	.	.	.
.	.	16b'^ 16cc#'^	16ccc'^ 16ddd'^	.	.	.	.	.	.
.	.	.	.	.	12an	.	.	.	.
.	.	16b' 16cc#'	16ccc' 16ddd'	.	.	.	.	.	.
.	.	.	.	.	12B-	.	.	.	.
.	.	16b'^ 16cc#'^	16ccc'^ 16ddd'^	.	.	.	.	.	.
=57	=57	=57	=57	=57	=57	=57	=57	=57	=57
8.r	8.r	16bn' 16cc#'	16cccn' 16dddn'	2r	12een	2r	2r	2r	2r
.	.	16b' 16cc#'	16ccc' 16ddd'	.	.	.	.	.	.
.	.	.	.	.	12e-	.	.	.	.
.	.	16r	16r	.	.	.	.	.	.
.	.	.	.	.	12r	.	.	.	.
16FFn'^ 16GGn'^	16F#'^ 16G#'^	16b'^ 16cc#'^	16ccc'^ 16ddd'^	.	.	.	.	.	.
16FF' 16GG'	16F#' 16G#'	16b' 16cc#'	16ccc' 16ddd'	.	4r	.	.	.	.
16FF' 16GG'	16F#' 16G#'	16r	16r	.	.	.	.	.	.
16r	16r	16r	16r	.	.	.	.	.	.
16FF'^ 16GG'^	16F#'^ 16G#'^	16b'^ 16cc#'^	16ccc'^ 16ddd'^	.	.	.	.	.	.
=58	=58	=58	=58	=58	=58	=58	=58	=58	=58
16FFn' 16GGn'	16F#' 16G#'	16bn' 16cc#'	16cccn' 16dddn'	2r	12r	2r	2r	2r	2r
16r	16r	16b' 16cc#'	16ccc' 16ddd'	.	.	.	.	.	.
.	.	.	.	.	12een	.	.	.	.
16r	16r	16r	16r	.	.	.	.	.	.
.	.	.	.	.	12e-	.	.	.	.
16FF'^ 16GG'^	16F#'^ 16G#'^	16b'^ 16cc#'^	16ccc'^ 16ddd'^	.	.	.	.	.	.
16FF' 16GG'	16F#' 16G#'	16b' 16cc#'	16ccc' 16ddd'	.	12an	.	.	.	.
16FF' 16GG'	16F#' 16G#'	16r	16r	.	.	.	.	.	.
.	.	.	.	.	12B-	.	.	.	.
16r	16r	8r	8r	.	.	.	.	.	.
.	.	.	.	.	12a	.	.	.	.
16FF'^ 16GG'^	16F#'^ 16G#'^	.	.	.	.	.	.	.	.
=59	=59	=59	=59	=59	=59	=59	=59	=59	=59
16FFn' 16GGn'	16F#' 16G#'	4r	4r	2r	12e-	2r	2r	2r	2r
16FF'^ 16GG'^	16F#'^ 16G#'^	.	.	.	.	.	.	.	.
.	.	.	.	.	12een	.	.	.	.
16FF' 16GG'	16F#' 16G#'	.	.	.	.	.	.	.	.
.	.	.	.	.	12r	.	.	.	.
16FF' 16GG'	16F#' 16G#'	.	.	.	.	.	.	.	.
16r	16r	16r	16r	.	4r	.	.	.	.
16FF'^ 16GG'^	16F#'^ 16G#'^	16bn'^ 16cc#'^	16cccn'^ 16dddn'^	.	.	.	.	.	.
16FF' 16GG'	16F#' 16G#'	16b' 16cc#'	16ccc' 16ddd'	.	.	.	.	.	.
16r	16r	16b' 16cc#'	16ccc' 16ddd'	.	.	.	.	.	.
=60	=60	=60	=60	=60	=60	=60	=60	=60	=60
16r	16r	16r	16r	2r	4r	2r	2r	2r	2r
16FFn'^ 16GGn'^	16F#'^ 16G#'^	16bn'^ 16cc#'^	16cccn'^ 16dddn'^	.	.	.	.	.	.
16FF' 16GG'	16F#' 16G#'	16b' 16cc#'	16ccc' 16ddd'	.	.	.	.	.	.
16FF' 16GG'	16F#' 16G#'	16r	16r	.	.	.	.	.	.
16r	16r	16r	16r	.	12r	.	.	.	.
16FF'^ 16GG'^	16F#'^ 16G#'^	16b'^ 16cc#'^	16ccc'^ 16ddd'^	.	.	.	.	.	.
.	.	.	.	.	12e-	.	.	.	.
16FF' 16GG'	16F#' 16G#'	16b' 16cc#'	16ccc' 16ddd'	.	.	.	.	.	.
.	.	.	.	.	12een	.	.	.	.
16r	16r	16b' 16cc#'	16ccc' 16ddd'	.	.	.	.	.	.
=61	=61	=61	=61	=61	=61	=61	=61	=61	=61
4r	4r	16r	16r	2r	12B-	2r	2r	2r	2r
.	.	16bn'^ 16cc#'^	16cccn'^ 16dddn'^	.	.	.	.	.	.
.	.	.	.	.	12an	.	.	.	.
.	.	16b' 16cc#'	16ccc' 16ddd'	.	.	.	.	.	.
.	.	.	.	.	12B-	.	.	.	.
.	.	16b'^ 16cc#'^	16ccc'^ 16ddd'^	.	.	.	.	.	.
8.r	8.r	16b' 16cc#'	16ccc' 16ddd'	.	12een	.	.	.	.
.	.	16b' 16cc#'	16ccc' 16ddd'	.	.	.	.	.	.
.	.	.	.	.	12e-	.	.	.	.
.	.	16r	16r	.	.	.	.	.	.
.	.	.	.	.	12r	.	.	.	.
16FFn'^ 16GGn'^	16F#'^ 16G#'^	16b'^ 16cc#'^	16ccc'^ 16ddd'^	.	.	.	.	.	.
=62	=62	=62	=62	=62	=62	=62	=62	=62	=62
16FFn' 16GGn'	16F#' 16G#'	16bn' 16cc#'	16cccn' 16dddn'	2r	4r	2r	2r	2r	2r
16FF' 16GG'	16F#' 16G#'	16r	16r	.	.	.	.	.	.
16r	16r	16r	16r	.	.	.	.	.	.
16FF'^ 16GG'^	16F#'^ 16G#'^	16b'^ 16cc#'^	16ccc'^ 16ddd'^	.	.	.	.	.	.
16FF' 16GG'	16F#' 16G#'	16b' 16cc#'	16ccc' 16ddd'	.	12r	.	.	.	.
16r	16r	16b' 16cc#'	16ccc' 16ddd'	.	.	.	.	.	.
.	.	.	.	.	12een	.	.	.	.
16r	16r	16r	16r	.	.	.	.	.	.
.	.	.	.	.	12e-	.	.	.	.
16FF'^ 16GG'^	16F#'^ 16G#'^	16b'^ 16cc#'^	16ccc'^ 16ddd'^	.	.	.	.	.	.
=63	=63	=63	=63	=63	=63	=63	=63	=63	=63
16FFn' 16GGn'	16F#' 16G#'	16bn' 16cc#'	16cccn' 16dddn'	2r	12an	2r	2r	2r	2r
16FF' 16GG'	16F#' 16G#'	16r	16r	.	.	.	.	.	.
.	.	.	.	.	12B-	.	.	.	.
16r	16r	8r	8r	.	.	.	.	.	.
.	.	.	.	.	12a	.	.	.	.
16FF'^ 16GG'^	16F#'^ 16G#'^	.	.	.	.	.	.	.	.
16FF' 16GG'	16F#' 16G#'	4r	4r	.	12e-	.	.	.	.
16FF'^ 16GG'^	16F#'^ 16G#'^	.	.	.	.	.	.	.	.
.	.	.	.	.	12een	.	.	.	.
16FF' 16GG'	16F#' 16G#'	.	.	.	.	.	.	.	.
.	.	.	.	.	12r	.	.	.	.
16FF' 16GG'	16F#' 16G#'	.	.	.	.	.	.	.	.
=64	=64	=64	=64	=64	=64	=64	=64	=64	=64
16r	16r	16r	16r	2r	2r	2r	2r	2r	2r
16FFn'^ 16GGn'^	16F#'^ 16G#'^	16bn'^ 16cc#'^	16cccn'^ 16dddn'^	.	.	.	.	.	.
16FF' 16GG'	16F#' 16G#'	16b' 16cc#'	16ccc' 16ddd'	.	.	.	.	.	.
16r	16r	16b' 16cc#'	16ccc' 16ddd'	.	.	.	.	.	.
16r	16r	16r	16r	.	.	.	.	.	.
16FF'^ 16GG'^	16F#'^ 16G#'^	16b'^ 16cc#'^	16ccc'^ 16ddd'^	.	.	.	.	.	.
16FF' 16GG'	16F#' 16G#'	16b' 16cc#'	16ccc' 16ddd'	.	.	.	.	.	.
16FF' 16GG'	16F#' 16G#'	16r	16r	.	.	.	.	.	.
=65	=65	=65	=65	=65	=65	=65	=65	=65	=65
16r	16r	16r	16r	2r	12r	2r	2r	2r	2r
16FFn'^ 16GGn'^	16F#'^ 16G#'^	16bn'^ 16cc#'^	16cccn'^ 16dddn'^	.	.	.	.	.	.
.	.	.	.	.	12e-	.	.	.	.
16FF' 16GG'	16F#' 16G#'	16b' 16cc#'	16ccc' 16ddd'	.	.	.	.	.	.
.	.	.	.	.	12een	.	.	.	.
16r	16r	16b' 16cc#'	16ccc' 16ddd'	.	.	.	.	.	.
4r	4r	16r	16r	.	12B-	.	.	.	.
.	.	16b'^ 16cc#'^	16ccc'^ 16ddd'^	.	.	.	.	.	.
.	.	.	.	.	12an	.	.	.	.
.	.	16b' 16cc#'	16ccc' 16ddd'	.	.	.	.	.	.
.	.	.	.	.	12B-	.	.	.	.
.	.	16b'^ 16cc#'^	16ccc'^ 16ddd'^	.	.	.	.	.	.
!! rit. - - - - - - - - -
=66	=66	=66	=66	=66	=66	=66	=66	=66	=66
8.r	8.r	16bn' 16cc#'	16cccn' 16dddn'	2r	12een	2r	2r	4r	2r
.	.	16b' 16cc#'	16ccc' 16ddd'	.	.	.	.	.	.
.	.	.	.	.	12e-	.	.	.	.
.	.	16r	16r	.	.	.	.	.	.
.	.	.	.	.	12r	.	.	.	.
16FFn'^ 16GGn'^	16F#'^ 16G#'^	16b'^ 16cc#'^	16ccc'^ 16ddd'^	.	.	.	.	.	.
16FF' 16GG'	16F#' 16G#'	16b' 16cc#'	16ccc' 16ddd'	.	4r	.	.	8r	.
16FF' 16GG'	16F#' 16G#'	16r	16r	.	.	.	.	.	.
16r	16r	8r	8r	.	.	.	.	16GGn'^	.
16FF'^ 16GG'^	16F#'^ 16G#'^	.	.	.	.	.	.	16r	.
*MM168	*MM168	*MM168	*MM168	*MM168	*MM168	*MM168	*MM168	*MM168	*MM168
*>V6	*>V6	*>V6	*>V6	*>V6	*>V6	*>V6	*>V6	*>V6	*>V6
!! Variation VI.
!! marschmaessig, nicht eilen
*MM132	*MM132	*MM132	*MM132	*MM132	*MM132	*MM132	*MM132	*MM132	*MM132
=67	=67	=67	=67	=67	=67	=67	=67	=67	=67
16FFn' 16GGn'	16F#' 16G#'	2r	2r	2r	2r	2r	4r	16B-'^	8r
16r	16r	.	.	.	.	.	.	16r	.
8r	8r	.	.	.	.	.	.	16.r	16eee-'^
.	.	.	.	.	.	.	.	.	16r
.	.	.	.	.	.	.	.	(32an	.
4r	4r	.	.	.	.	.	16r	[4G#	16ccn^
.	.	.	.	.	.	.	16B-'	.	16r
.	.	.	.	.	.	.	8Bn~	.	16.r
.	.	.	.	.	.	.	.	.	(32c#
=68	=68	=68	=68	=68	=68	=68	=68	=68	=68
2r	2r	2r	2r	2r	2r	2r	16r	16G#])	[4ddn
.	.	.	.	.	.	.	8.c#z	16r	.
.	.	.	.	.	.	.	.	16.r	.
.	.	.	.	.	.	.	.	(32cn	.
.	.	.	.	.	.	.	16r	4BBn)	16dd])
.	.	.	.	.	.	.	(8G#	.	16r
.	.	.	.	.	.	.	.	.	16.r
.	.	.	.	.	.	.	16cn')	.	.
.	.	.	.	.	.	.	.	.	(32b-
=69	=69	=69	=69	=69	=69	=69	=69	=69	=69
2r	2r	2r	2r	2r	2r	2r	16r	16.r	4bbn)
.	.	.	.	.	.	.	(4.Anz	.	.
.	.	.	.	.	.	.	.	(32fn	.
.	.	.	.	.	.	.	.	8G-)	.
.	.	.	.	.	.	.	.	16.r	16.r
.	.	.	.	.	.	.	.	(32fn	(32fn
.	.	.	.	.	.	.	.	8G-)	8een)
.	.	.	.	.	.	.	16Bnz)	.	.
=70	=70	=70	=70	=70	=70	=70	=70	=70	=70
2r	2r	2r	2r	2r	2r	2r	16r	8r	16.r
.	.	.	.	.	.	.	4.B-z	.	.
.	.	.	.	.	.	.	.	.	(32fn
.	.	.	.	.	.	.	.	16DDnz'	8een)
.	.	.	.	.	.	.	.	16r	.
.	.	.	.	.	.	.	.	16e-z'	8r
.	.	.	.	.	.	.	.	16r	.
.	.	.	.	.	.	.	.	16.r	16aaa-z'
.	.	.	.	.	.	.	16r	.	16r
.	.	.	.	.	.	.	.	(32en	.
=71	=71	=71	=71	=71	=71	=71	=71	=71	=71
2r	2r	2r	2r	2r	2r	2r	16r	8c#)	16gnz'
.	.	.	.	.	.	.	4..E-^U	.	16r
.	.	.	.	.	.	.	.	16.r	16.r
.	.	.	.	.	.	.	.	(32en	(32f#
.	.	.	.	.	.	.	.	[4c#	8an)
.	.	.	.	.	.	.	.	.	16.r
.	.	.	.	.	.	.	.	.	(32f#
=72	=72	=72	=72	=72	=72	=72	=72	=72	=72
2r	2r	2r	2r	2r	2r	2r	16r	2c#_	2an
.	.	.	.	.	.	.	8.g-	.	.
.	.	.	.	.	.	.	16r	.	.
.	.	.	.	.	.	.	8.Dn	.	.
=73	=73	=73	=73	=73	=73	=73	=73	=73	=73
2r	2r	2r	2r	2r	2r	2r	16r	4c#]	32f#)
.	.	.	.	.	.	.	.	.	32r
.	.	.	.	.	.	.	(16gn	.	16r
.	.	.	.	.	.	.	4.G#)	.	(8an
.	.	.	.	.	.	.	.	32en)	32f#)
.	.	.	.	.	.	.	.	32r	32r
.	.	.	.	.	.	.	.	16r	16r
.	.	.	.	.	.	.	.	(8c#	16r
.	.	.	.	.	.	.	.	.	16gnz'
=74	=74	=74	=74	=74	=74	=74	=74	=74	=74
2r	2r	2r	2r	2r	2r	2r	16r	32en)	16r
.	.	.	.	.	.	.	.	32r	.
.	.	.	.	.	.	.	(8.gnz	16r	16aaa-z'
.	.	.	.	.	.	.	.	16r	8r
.	.	.	.	.	.	.	.	16e-z'	.
.	.	.	.	.	.	.	8.G#	16r	(8een
.	.	.	.	.	.	.	.	16DDnz'	.
.	.	.	.	.	.	.	.	8r	32fn)
.	.	.	.	.	.	.	.	.	32r
.	.	.	.	.	.	.	16c#)	.	16r
=75	=75	=75	=75	=75	=75	=75	=75	=75	=75
2r	2r	2r	2r	2r	2r	2r	16r	(8G-	(8een
.	.	.	.	.	.	.	8.anz	.	.
.	.	.	.	.	.	.	.	32fn)	32fn)
.	.	.	.	.	.	.	.	32r	32r
.	.	.	.	.	.	.	.	16r	16r
.	.	.	.	.	.	.	16r	(8G-	(4bbn
.	.	.	.	.	.	.	8.Cnz	.	.
.	.	.	.	.	.	.	.	32fn)	.
.	.	.	.	.	.	.	.	32r	.
.	.	.	.	.	.	.	.	16r	.
=76	=76	=76	=76	=76	=76	=76	=76	=76	=76
2r	2r	2r	2r	2r	2r	2r	16r	(4BBnz	32b-)
.	.	.	.	.	.	.	.	.	32r
.	.	.	.	.	.	.	16fn'	.	16r
.	.	.	.	.	.	.	16En'	.	16r
.	.	.	.	.	.	.	16r	.	([16ddnz
.	.	.	.	.	.	.	16g-z'	32cn)	4dd]
.	.	.	.	.	.	.	.	32r	.
.	.	.	.	.	.	.	(8E-	16r	.
.	.	.	.	.	.	.	.	16r	.
.	.	.	.	.	.	.	16gnz')	([16G#z	.
=77	=77	=77	=77	=77	=77	=77	=77	=77	=77
2r	2r	2r	2r	2r	2r	2r	16r	4G#]	32c#)
.	.	.	.	.	.	.	.	.	32r
.	.	.	.	.	.	.	8.Dnz	.	16r
.	.	.	.	.	.	.	.	.	16r
.	.	.	.	.	.	.	.	.	16ccn'z
.	.	.	.	.	.	.	16r	32an)	16r
.	.	.	.	.	.	.	.	32r	.
.	.	.	.	.	.	.	(16en	16r	16eee-z'
.	.	.	.	.	.	.	8Fn)	16r	8r
.	.	.	.	.	.	.	.	16B-z'	.
*>V7	*>V7	*>V7	*>V7	*>V7	*>V7	*>V7	*>V7	*>V7	*>V7
!! Variation VII.
!! etwas breiter
*MM108	*MM108	*MM108	*MM108	*MM108	*MM108	*MM108	*MM108	*MM108	*MM108
=78	=78	=78	=78	=78	=78	=78	=78	=78	=78
8r	4r	2r	4r	16r	16r	2r	2r	16r	2r
.	.	.	.	8DDn	8C#	.	.	16GGnz'	.
(4en	.	.	.	.	.	.	.	8r	.
.	.	.	.	16r	16r	.	.	.	.
.	8r	.	8r	16r	16r	.	.	4r	.
.	.	.	.	8aan	8ggg#	.	.	.	.
8C#')	8Fn"	.	([8f#	.	.	.	.	.	.
.	.	.	.	16r	16r	.	.	.	.
!! rit. - - - -
=79	=79	=79	=79	=79	=79	=79	=79	=79	=79
2r	8en"	8r	8f#]	2r	2r	2r	2r	4r	6r
.	8r	8ffn"	8aan')	.	.	.	.	.	.
.	.	.	.	.	.	.	.	.	qddn
.	.	.	.	.	.	.	.	.	(6e-
.	4r	8f#"	4r	.	.	.	.	12r	.
.	.	.	.	.	.	.	.	12r	12bn)
.	.	8r	.	.	.	.	.	.	.
.	.	.	.	.	.	.	.	qG#	.
.	.	.	.	.	.	.	.	([12gn	12r
=80	=80	=80	=80	=80	=80	=80	=80	=80	=80
!! tempo
4r	2r	2r	2r	2r	2r	4r	8r	12g]	2r
.	.	.	.	.	.	.	.	12Bn')	.
.	.	.	.	.	.	.	(8b-	.	.
.	.	.	.	.	.	.	.	12r	.
8r	.	.	.	.	.	8r	8cn	4r	.
8f#"	.	.	.	.	.	8cn'U	8bn)	.	.
!! rit. - - - - - - -
=81	=81	=81	=81	=81	=81	=81	=81	=81	=81
8Fn"	2r	2r	8r	2r	2r	8b-'U	2r	4r	8.r
8An"	.	.	8en"	.	.	8Bn'U	.	.	.
.	.	.	.	.	.	.	.	.	(8gn
4r	.	.	8ffn"	.	.	4r	.	8.r	.
.	.	.	.	.	.	.	.	.	8a-)
.	.	.	8cc#"	.	.	.	.	.	.
.	.	.	.	.	.	.	.	([16e-	16r
=82	=82	=82	=82	=82	=82	=82	=82	=82	=82
2r	4r	2r	2r	4r	2r	2r	2r	16e-]	2r
.	.	.	.	.	.	.	.	8dn)	.
.	.	.	.	.	.	.	.	16r	.
.	12r	.	.	8An	.	.	.	4r	.
!! tempo
.	qgn	.	.	.	.	.	.	.	.
.	12B-'	.	.	.	.	.	.	.	.
.	.	.	.	8r	.	.	.	.	.
.	12r	.	.	.	.	.	.	.	.
=83	=83	=83	=83	=83	=83	=83	=83	=83	=83
!! rit. - - - - - - -
2r	2r	12r	2r	8cc#	8ff#	2r	2r	2r	2r
.	.	qe-	.	.	.	.	.	.	.
.	.	12ccn'	.	.	.	.	.	.	.
.	.	.	.	4En	8r	.	.	.	.
.	.	12r	.	.	.	.	.	.	.
.	.	12r	.	.	8r	.	.	.	.
.	.	qccn	.	.	.	.	.	.	.
.	.	12e-'	.	.	.	.	.	.	.
.	.	.	.	8cc#	8ff#	.	.	.	.
.	.	12r	.	.	.	.	.	.	.
=84	=84	=84	=84	=84	=84	=84	=84	=84	=84
!! tempo
2r	12r	2r	2r	8r	2r	2r	2r	4r	2r
.	qB-	.	.	.	.	.	.	.	.
.	12gn	.	.	.	.	.	.	.	.
.	.	.	.	8An	.	.	.	.	.
.	12r	.	.	.	.	.	.	.	.
.	4r	.	.	4r	.	.	.	16r	.
.	.	.	.	.	.	.	.	(8dn	.
.	.	.	.	.	.	.	.	[16e-	.
=85	=85	=85	=85	=85	=85	=85	=85	=85	=85
4r	2r	2r	8cc#"	2r	2r	4r	2r	16e-])	16r
.	.	.	.	.	.	.	.	16r	(8a-
.	.	.	8ffn"	.	.	.	.	8r	.
.	.	.	.	.	.	.	.	.	8gn)
8An"	.	.	8en"	.	.	8Bn'U	.	4r	.
.	.	.	.	.	.	.	.	.	16r
8Fn"	.	.	8r	.	.	8b-'U	.	.	8r
=86	=86	=86	=86	=86	=86	=86	=86	=86	=86
!! rit. - - - - - -
8f#"	2r	2r	2r	2r	2r	8cn'U	(8bn	4r	2r
8r	.	.	.	.	.	8r	8cn	.	.
4r	.	.	.	.	.	4r	8b-)	12r	.
.	.	.	.	.	.	.	.	(12Bn	.
.	.	.	.	.	.	.	8r	.	.
.	.	.	.	.	.	.	.	qgn	.
.	.	.	.	.	.	.	.	[12G#	.
!! tempo
=87	=87	=87	=87	=87	=87	=87	=87	=87	=87
2r	4r	8r	4r	2r	2r	2r	2r	12G#])	12r
.	.	.	.	.	.	.	.	12r	(12bn
.	.	8f#"	.	.	.	.	.	.	.
.	.	.	.	.	.	.	.	.	qe-
.	.	.	.	.	.	.	.	12r	12ddn)
.	8r	8ffn"	(8aan	.	.	.	.	4r	4r
.	8en"	8r	[8f#	.	.	.	.	.	.
=88	=88	=88	=88	=88	=88	=88	=88	=88	=88
(8C#	8Fn"	2r	8f#])	16r	16r	2r	2r	4r	2r
.	.	.	.	8aan	8ggg#	.	.	.	.
4en)	8r	.	8r	.	.	.	.	.	.
.	.	.	.	16r	16r	.	.	.	.
.	4r	.	4r	16r	16r	.	.	16r	.
.	.	.	.	8DDn	8C#	.	.	16GGn'^	.
8r	.	.	.	.	.	.	.	16r	.
.	.	.	.	16r	16r	.	.	16B-'^	.
*>Coda	*>Coda	*>Coda	*>Coda	*>Coda	*>Coda	*>Coda	*>Coda	*>Coda	*>Coda
!! Coda
=89	=89	=89	=89	=89	=89	=89	=89	=89	=89
2r	2r	2r	2r	8BBn^	8r	2r	2r	2r	16r
.	.	.	.	.	.	.	.	.	16eee-'^
.	.	.	.	8r	8ffn^	.	.	.	16r
.	.	.	.	.	.	.	.	.	16ccn'^
!! rit. - - - - -
.	.	.	.	4r	4r	.	.	.	4r
=90	=90	=90	=90	=90	=90	=90	=90	=90	=90
4r	2r	2r	2r	4r	4r	2r	2r	2r	2r
16r	.	.	.	16r	16r	.	.	.	.
16GG#~"	.	.	.	16DDn~	16C#~	.	.	.	.
16r	.	.	.	8r	8r	.	.	.	.
16gn~"	.	.	.	.	.	.	.	.	.
=91	=91	=91	=91	=91	=91	=91	=91	=91	=91
!! tempo
2r	2r	2r	2r	2r	2r	2r	2r	2r	2r
=92	=92	=92	=92	=92	=92	=92	=92	=92	=92
2r	2r	2r	8r	2r	2r	2r	2r	2r	2r
.	.	.	qccn	.	.	.	.	.	.
.	.	.	([4.ff#	.	.	.	.	.	.
=93	=93	=93	=93	=93	=93	=93	=93	=93	=93
!! rit. - - - - -
2r	2r	2r	8ff#]	8r	8r	2r	2r	2r	2r
.	.	.	4B-	4een	4ddd#	.	.	.	.
.	.	.	8an)	8r	8r	.	.	.	.
=94	=94	=94	=94	=94	=94	=94	=94	=94	=94
!! tempo
2r	2r	2r	2r	2r	2r	2r	2r	2r	2r
=95	=95	=95	=95	=95	=95	=95	=95	=95	=95
2r	2r	2r	(8an	8r	8r	2r	2r	2r	2r
.	.	.	4B-	4een	4ddd#	.	.	.	.
.	.	.	qff#	.	.	.	.	.	.
.	.	.	[8ccn	8r	8r	.	.	.	.
=96	=96	=96	=96	=96	=96	=96	=96	=96	=96
!! rit. - - - - - - - - -
2r	2r	2r	4.cc])	2r	2r	2r	2r	2r	2r
.	.	.	8r	.	.	.	.	.	.
=97	=97	=97	=97	=97	=97	=97	=97	=97	=97
2r	2r	2r	2r	2r	2r	2r	2r	2r	2r
=98	=98	=98	=98	=98	=98	=98	=98	=98	=98
16gn~"	2r	2r	2r	8r	8r	2r	2r	2r	2r
16r	.	.	.	.	.	.	.	.	.
16GG#~"	.	.	.	16DDn~	16C#~	.	.	.	.
16r	.	.	.	16r	16r	.	.	.	.
!! tempo
4r	.	.	.	4r	4r	.	.	.	.
=99	=99	=99	=99	=99	=99	=99	=99	=99	=99
2r	2r	2r	2r	4r	4r	2r	2r	2r	2r
.	.	.	.	8r	8ffn^	.	.	.	.
.	.	.	.	8BBn^	8r	.	.	.	.
==	==	==	==	==	==	==	==	==	==
*-	*-	*-	*-	*-	*-	*-	*-	*-	*-
!!!ODE: Meiner Tochter Christine [Christine von Webern]
!!!CDT: 1893/12/3-1945/9/15
!!!CNT: Oesterreicher
!!!AFR: serial; 12-tone; theme and variations
!!!AST: serial
!!!AGN: chamber
!!!AMT: simple duple
!!!AIN: arpa cello clarb clars cor viola violn
!!!AGN: chamber
!!!ODT: 1928/8/
!!!EED: Brian Alegant
!!!ENC: David Huron
!!!EEV: 1.0
!!!RDT: 1995 June 3
!!!YED: 1995 September 15
!!!EFL: 2/2
!!!YEN: Canada
!!!EST: Missing stem directions and beaming.
!!!VTS: 161877531
